Mindful/img/triangle.svg

<svg width="63" height="59" viewBox="0 0 63 59" fill="none" xmlns="http://www.w3.org/2000/svg">
<path fill-rule="evenodd" clip-rule="evenodd" d="M53.705 17.129C58.8386 17.129 63.0001 13.2946 63.0001 8.56452C63.0001 3.83447 58.8386 0 53.705 0C48.5715 0 44.4099 3.83447 44.4099 8.56452C44.4099 13.2946 48.5715 17.129 53.705 17.129Z" fill="#FF7761"/>
<path fill-rule="evenodd" clip-rule="evenodd" d="M8.26235 16.1775C12.8255 16.1775 16.5247 12.7691 16.5247 8.56457C16.5247 4.36007 12.8255 0.95166 8.26235 0.95166C3.69918 0.95166 0 4.36007 0 8.56457C0 12.7691 3.69918 16.1775 8.26235 16.1775Z" fill="#FF7761"/>
<path fill-rule="evenodd" clip-rule="evenodd" d="M52.6723 59C57.2354 59 60.9346 55.5916 60.9346 51.3871C60.9346 47.1826 57.2354 43.7742 52.6723 43.7742C48.1091 43.7742 44.4099 47.1826 44.4099 51.3871C44.4099 55.5916 48.1091 59 52.6723 59Z" fill="#FF7761"/>
</svg>

<svg width="63" height="59" fill="none" xmlns="http://www.w3.org/2000/svg"><path fill-rule="evenodd" clip-rule="evenodd" d="M53.705 17.129c5.134 0 9.295-3.834 9.295-8.564S58.84 0 53.705 0c-5.133 0-9.295 3.834-9.295 8.565 0 4.73 4.162 8.564 9.295 8.564zm-45.443-.952c4.563 0 8.263-3.408 8.263-7.612 0-4.205-3.7-7.613-8.263-7.613S0 4.36 0 8.565c0 4.204 3.7 7.612 8.262 7.612zM52.672 59c4.563 0 8.263-3.408 8.263-7.613 0-4.204-3.7-7.613-8.263-7.613s-8.262 3.409-8.262 7.613c0 4.205 3.7 7.613 8.262 7.613z" fill="#FF7761"/></svg>
